X:1
T:Drei Turig
C:traditionell
R:
A:Arendsee, Mecklenburg
F:http://simonwascher.info/
Z:abc transcription Simon Wascher
M:2/4
L:1/16
K:G
G2GF G2GF | G2GF G4 | G2B2d2e2 | d2c2B2A2 |\
G2GF G2GF | G2GF G4 | G2B2d2e2 | dcBA G4 :|
|:\
B2Bd cBAG | F2FA GFED | B2Bd cBAG | FAB^c d4 |\
d2d^c d2d^c | d2d^c d4 | d2f2a2b2 | a2g2f2e2 |\
d2d^c d2d^c | d2d^c d4 | d2f2a2b2 | agfe d4 :|
|:\
d^cBA ^G2G2 | ^G2G2 A4 | =cBAG F2F2 | F2F2 G4 |\
A2^G2A2B2 | c2B2A2B2 | c2B2A2G2 | F2FE "Da Capo"D4 |
W:1) koennte auch e'' oder c'' sein
W:aus Simon Waschers TradArchiv
v

